X: 1909
T: Arra Mountains, The
R: slip jig
M: 9/8
K: Adorian
|:EAA EAB c3|EAA EAF GED|EAA EAB c2d|ege ege dBG:|
A2a gef g3|e2a ged Bcd|A2a gef g2 e|dBd ege dBG|
A2a gef g3|e2a ged Bcd|efg fgag2 e|dBd ege dBG||

